N10 %
N11 (FILE: Test.NC)
N12 (MATR: Mild Steel/Standard/1.25)
N13 (DRAWING: C:/M/betterCam/Test.dxf)
N14 (DATE: 10/10/2023)
N15 (MACHINE: AWJ-BURNY)
N16 G90
N17 G70

(PART NAME:PART)
N18 G0 X-1 Y8.0249
N19 G41
N20 M04 (ALL JET ON)
N21 M245 (ALL ABR ON)
N22 G4F.5 (DWELL)
N23 G1 X0 Y8.0249 F0.22
N24 G1 X0.1094 Y8.0249 F0.22
N25 G1 X0.1487 Y8.0249 F0.27
N26 G1 X0.1881 Y8.0249 F0.31
N27 G1 X0.2275 Y8.0249 F0.35
N28 G1 X0.2669 Y8.0249 F0.39
N29 G1 X0.3062 Y8.0249 F0.43
N30 G1 X0.3456 Y8.0249 F0.47
N31 G1 X0.385 Y8.0249 F0.51
N32 G1 X0.4243 Y8.0249 F0.56
N33 G1 X0.4637 Y8.0249 F0.6
N34 G1 X4.6457 Y8.0249 F0.6
N35 G1 X4.685 Y8.0249 F0.56
N36 G1 X4.7244 Y8.0249 F0.51
N37 G1 X4.7638 Y8.0249 F0.47
N38 G1 X4.8031 Y8.0249 F0.43
N39 G1 X4.8425 Y8.0249 F0.39
N40 G1 X4.8819 Y8.0249 F0.35
N41 G1 X4.9213 Y8.0249 F0.31
N42 G1 X4.9606 Y8.0249 F0.27
N43 G1 X5 Y8.0249 F0.22
N44 G1 X5 Y7.9856 F0.22
N45 G1 X5 Y7.9462 F0.27
N46 G1 X5 Y7.9068 F0.31
N47 G1 X5 Y7.8674 F0.35
N48 G1 X5 Y7.8281 F0.39
N49 G1 X5 Y7.7887 F0.43
N50 G1 X5 Y7.7493 F0.47
N51 G1 X5 Y7.71 F0.51
N52 G1 X5 Y7.6706 F0.56
N53 G1 X5 Y7.6312 F0.6
N54 G1 X5 Y3.3793 F0.6
N55 G1 X5 Y3.3399 F0.56
N56 G1 X5 Y3.3005 F0.51
N57 G1 X5 Y3.2611 F0.47
N58 G1 X5 Y3.2218 F0.43
N59 G1 X5 Y3.1824 F0.39
N60 G1 X5 Y3.143 F0.35
N61 G1 X5 Y3.1037 F0.31
N62 G1 X5 Y3.0643 F0.27
N63 G1 X5 Y3.0249 F0.22
N64 G1 X4.9606 Y3.0249 F0.22
N65 G1 X4.9213 Y3.0249 F0.27
N66 G1 X4.8819 Y3.0249 F0.31
N67 G1 X4.8425 Y3.0249 F0.35
N68 G1 X4.8031 Y3.0249 F0.39
N69 G1 X4.7638 Y3.0249 F0.43
N70 G1 X4.7244 Y3.0249 F0.47
N71 G1 X4.685 Y3.0249 F0.51
N72 G1 X4.6457 Y3.0249 F0.56
N73 G1 X4.6063 Y3.0249 F0.6
N74 G1 X0.3543 Y3.0249 F0.6
N75 G1 X0.315 Y3.0249 F0.56
N76 G1 X0.2756 Y3.0249 F0.51
N77 G1 X0.2362 Y3.0249 F0.47
N78 G1 X0.1969 Y3.0249 F0.43
N79 G1 X0.1575 Y3.0249 F0.39
N80 G1 X0.1181 Y3.0249 F0.35
N81 G1 X0.0787 Y3.0249 F0.31
N82 G1 X0.0394 Y3.0249 F0.27
N83 G1 X0 Y3.0249 F0.22
N84 G1 X0 Y3.0643 F0.22
N85 G1 X0 Y3.1037 F0.27
N86 G1 X0 Y3.143 F0.31
N87 G1 X0 Y3.1824 F0.35
N88 G1 X0 Y3.2218 F0.39
N89 G1 X0 Y3.2611 F0.43
N90 G1 X0 Y3.3005 F0.47
N91 G1 X0 Y3.3399 F0.51
N92 G1 X0 Y3.3793 F0.56
N93 G1 X0 Y3.4186 F0.6
N94 G1 X0 Y7.6006 F0.6
N95 G1 X0 Y7.64 F0.56
N96 G1 X0 Y7.6793 F0.51
N97 G1 X0 Y7.7187 F0.47
N98 G1 X0 Y7.7581 F0.43
N99 G1 X0 Y7.7974 F0.39
N100 G1 X0 Y7.8368 F0.35
N101 G1 X0 Y7.8762 F0.31
N102 G1 X0 Y7.9156 F0.27
N103 G1 X0 Y8.0249 F0.22
N104 G1 X0 Y8.5249 F0.22
N105 M246
N106 G4F.5
N107 M03
N108 G04 F0.5
N109 G40

(PART NAME:PART)
N110 G0 X14.2299 Y5.8346
N111 G41
N112 M04 (ALL JET ON)
N113 M245 (ALL ABR ON)
N114 G4F.5 (DWELL)
N115 G1 X14.573 Y6.7739 F0.22
N116 G2 X14.6125 Y6.8759 I17.3143 J5.7725 F0.22
N117 G2 X14.6276 Y6.9122 I17.3143 J5.7725 F0.27
N118 G2 X14.6432 Y6.9483 I17.3143 J5.7725 F0.31
N119 G2 X14.6593 Y6.9843 I17.3143 J5.7725 F0.35
N120 G2 X14.6759 Y7.02 I17.3143 J5.7725 F0.39
N121 G2 X14.693 Y7.0555 I17.3143 J5.7725 F0.43
N122 G2 X14.7105 Y7.0907 I17.3143 J5.7725 F0.47
N123 G2 X14.7285 Y7.1257 I17.3143 J5.7725 F0.51
N124 G2 X14.747 Y7.1605 I17.3143 J5.7725 F0.56
N125 G2 X14.766 Y7.195 I17.3143 J5.7725 F0.6
N126 G2 X19.3962 Y7.8178 I17.3143 J5.7725 F0.6
N127 G2 X19.4236 Y7.7895 I17.3143 J5.7725 F0.56
N128 G2 X19.4506 Y7.7609 I17.3143 J5.7725 F0.51
N129 G2 X19.4772 Y7.7319 I17.3143 J5.7725 F0.47
N130 G2 X19.5035 Y7.7025 I17.3143 J5.7725 F0.43
N131 G2 X19.5293 Y7.6728 I17.3143 J5.7725 F0.39
N132 G2 X19.5547 Y7.6427 I17.3143 J5.7725 F0.35
N133 G2 X19.5798 Y7.6123 I17.3143 J5.7725 F0.31
N134 G2 X19.6044 Y7.5816 I17.3143 J5.7725 F0.27
N135 G2 X19.6411 Y7.5341 I17.3143 J5.7725 F0.22
N136 G2 X19.7006 Y7.5431 I20.3645 J2.983 F0.22
N137 G2 X19.7396 Y7.5486 I20.3645 J2.983 F0.27
N138 G2 X19.7786 Y7.5538 I20.3645 J2.983 F0.31
N139 G2 X19.8177 Y7.5586 I20.3645 J2.983 F0.35
N140 G2 X19.8568 Y7.5631 I20.3645 J2.983 F0.39
N141 G2 X19.8959 Y7.5673 I20.3645 J2.983 F0.43
N142 G2 X19.9351 Y7.5712 I20.3645 J2.983 F0.47
N143 G2 X19.9743 Y7.5747 I20.3645 J2.983 F0.51
N144 G2 X20.0136 Y7.5778 I20.3645 J2.983 F0.56
N145 G2 X20.0528 Y7.5807 I20.3645 J2.983 F0.6
N146 G2 X24.7487 Y4.4022 I20.3645 J2.983 F0.6
N147 G2 X24.7607 Y4.3647 I20.3645 J2.983 F0.56
N148 G2 X24.7723 Y4.3271 I20.3645 J2.983 F0.51
N149 G2 X24.7836 Y4.2894 I20.3645 J2.983 F0.47
N150 G2 X24.7946 Y4.2516 I20.3645 J2.983 F0.43
N151 G2 X24.8053 Y4.2137 I20.3645 J2.983 F0.39
N152 G2 X24.8179 Y4.1674 I20.3645 J2.983 F0.38
N153 G2 X24.85 Y4.1318 I23.3901 J2.847 F0.38
N154 G2 X24.8757 Y4.102 I23.3901 J2.847 F0.42
N155 G2 X24.9008 Y4.0717 I23.3901 J2.847 F0.46
N156 G2 X24.9253 Y4.0408 I23.3901 J2.847 F0.5
N157 G2 X24.9491 Y4.0095 I23.3901 J2.847 F0.54
N158 G2 X24.9723 Y3.9777 I23.3901 J2.847 F0.58
N159 G2 X24.9949 Y3.9455 I23.3901 J2.847 F0.6
N160 G2 X23.6022 Y0.9139 I23.3901 J2.847 F0.6
N161 G2 X23.563 Y0.91 I23.3901 J2.847 F0.56
N162 G2 X23.5237 Y0.9069 I23.3901 J2.847 F0.51
N163 G2 X23.4844 Y0.9046 I23.3901 J2.847 F0.47
N164 G2 X23.4451 Y0.9031 I23.3901 J2.847 F0.43
N165 G2 X23.4057 Y0.9024 I23.3901 J2.847 F0.39
N166 G2 X23.3664 Y0.9024 I23.3901 J2.847 F0.35
N167 G2 X23.327 Y0.9033 I23.3901 J2.847 F0.31
N168 G2 X23.2877 Y0.905 I23.3901 J2.847 F0.27
N169 G2 X23.225 Y0.9093 I23.3901 J2.847 F0.22
N170 G2 X23.1964 Y0.8535 I21.7678 J1.6223 F0.22
N171 G2 X23.1773 Y0.8191 I21.7678 J1.6223 F0.27
N172 G2 X23.1574 Y0.7851 I21.7678 J1.6223 F0.31
N173 G2 X23.1367 Y0.7516 I21.7678 J1.6223 F0.35
N174 G2 X23.1151 Y0.7187 I21.7678 J1.6223 F0.39
N175 G2 X23.0928 Y0.6862 I21.7678 J1.6223 F0.43
N176 G2 X23.0697 Y0.6544 I21.7678 J1.6223 F0.47
N177 G2 X23.0458 Y0.623 I21.7678 J1.6223 F0.51
N178 G2 X23.0212 Y0.5923 I21.7678 J1.6223 F0.56
N179 G2 X22.9958 Y0.5622 I21.7678 J1.6223 F0.6
N180 G2 X20.3359 Y2.385 I21.7678 J1.6223 F0.6
N181 G2 X20.3548 Y2.4196 I21.7678 J1.6223 F0.56
N182 G2 X20.3746 Y2.4536 I21.7678 J1.6223 F0.51
N183 G2 X20.3952 Y2.4872 I21.7678 J1.6223 F0.47
N184 G2 X20.4166 Y2.5202 I21.7678 J1.6223 F0.43
N185 G2 X20.4388 Y2.5527 I21.7678 J1.6223 F0.39
N186 G2 X20.4617 Y2.5847 I21.7678 J1.6223 F0.35
N187 G2 X20.4855 Y2.6161 I21.7678 J1.6223 F0.31
N188 G2 X20.51 Y2.647 I21.7678 J1.6223 F0.28
N189 G3 X20.5483 Y2.6558 I20.1662 J4.2254 F0.28
N190 G3 X20.5865 Y2.6656 I20.1662 J4.2254 F0.32
N191 G3 X20.6243 Y2.6763 I20.1662 J4.2254 F0.36
N192 G3 X20.662 Y2.6879 I20.1662 J4.2254 F0.41
N193 G3 X20.6993 Y2.7004 I20.1662 J4.2254 F0.45
N194 G3 X20.7363 Y2.7139 I20.1662 J4.2254 F0.49
N195 G3 X20.7729 Y2.7282 I20.1662 J4.2254 F0.53
N196 G3 X20.8093 Y2.7435 I20.1662 J4.2254 F0.57
N197 G3 X20.8452 Y2.7596 I20.1662 J4.2254 F0.6
N198 G3 X18.8387 Y5.1461 I20.1662 J4.2254 F0.6
N199 G3 X18.8167 Y5.1135 I20.1662 J4.2254 F0.56
N200 G3 X18.7955 Y5.0803 I20.1662 J4.2254 F0.51
N201 G3 X18.775 Y5.0467 I20.1662 J4.2254 F0.47
N202 G3 X18.7554 Y5.0125 I20.1662 J4.2254 F0.43
N203 G3 X18.7367 Y4.9779 I20.1662 J4.2254 F0.39
N204 G3 X18.7188 Y4.9429 I20.1662 J4.2254 F0.35
N205 G3 X18.7017 Y4.9074 I20.1662 J4.2254 F0.31
N206 G3 X18.6855 Y4.8715 I20.1662 J4.2254 F0.27
N207 G3 X18.6637 Y4.819 I20.1662 J4.2254 F0.22
N208 G2 X18.6921 Y4.7701 I16.9318 J3.7807 F0.22
N209 G2 X18.711 Y4.7356 I16.9318 J3.7807 F0.27
N210 G2 X18.7293 Y4.7008 I16.9318 J3.7807 F0.31
N211 G2 X18.7469 Y4.6655 I16.9318 J3.7807 F0.35
N212 G2 X18.7638 Y4.63 I16.9318 J3.7807 F0.39
N213 G2 X18.78 Y4.5941 I16.9318 J3.7807 F0.43
N214 G2 X18.7955 Y4.5579 I16.9318 J3.7807 F0.47
N215 G2 X18.8103 Y4.5214 I16.9318 J3.7807 F0.51
N216 G2 X18.8244 Y4.4847 I16.9318 J3.7807 F0.56
N217 G2 X18.8378 Y4.4477 I16.9318 J3.7807 F0.6
N218 G2 X16.0375 Y5.5912 I16.9318 J3.7807 F0.6
N219 G2 X16.073 Y5.6083 I16.9318 J3.7807 F0.56
N220 G2 X16.1088 Y5.6247 I16.9318 J3.7807 F0.51
N221 G2 X16.1449 Y5.6404 I16.9318 J3.7807 F0.47
N222 G2 X16.1813 Y5.6554 I16.9318 J3.7807 F0.43
N223 G2 X16.218 Y5.6696 I16.9318 J3.7807 F0.39
N224 G2 X16.2549 Y5.6832 I16.9318 J3.7807 F0.35
N225 G2 X16.2922 Y5.696 I16.9318 J3.7807 F0.31
N226 G2 X16.3296 Y5.7081 I16.9318 J3.7807 F0.27
N227 G2 X16.3831 Y5.724 I16.9318 J3.7807 F0.22
N228 G3 X16.4045 Y5.776 I15.4211 J6.1508 F0.22
N229 G3 X16.4178 Y5.813 I15.4211 J6.1508 F0.27
N230 G3 X16.4297 Y5.8505 I15.4211 J6.1508 F0.31
N231 G3 X16.4403 Y5.8884 I15.4211 J6.1508 F0.35
N232 G3 X16.4494 Y5.9267 I15.4211 J6.1508 F0.39
N233 G3 X16.457 Y5.9654 I15.4211 J6.1508 F0.43
N234 G3 X16.4632 Y6.0042 I15.4211 J6.1508 F0.47
N235 G3 X16.468 Y6.0433 I15.4211 J6.1508 F0.51
N236 G3 X16.4713 Y6.0825 I15.4211 J6.1508 F0.54
N237 G3 X14.852 Y7.036 I15.4211 J6.1508 F0.54
N238 G3 X14.8193 Y7.0141 I15.4211 J6.1508 F0.5
N239 G3 X14.7874 Y6.991 I15.4211 J6.1508 F0.46
N240 G3 X14.7564 Y6.9667 I15.4211 J6.1508 F0.41
N241 G3 X14.7264 Y6.9413 I15.4211 J6.1508 F0.37
N242 G3 X14.6973 Y6.9147 I15.4211 J6.1508 F0.33
N243 G3 X14.6692 Y6.8871 I15.4211 J6.1508 F0.29
N244 G3 X14.6422 Y6.8585 I15.4211 J6.1508 F0.25
N245 G3 X14.573 Y6.7739 I15.4211 J6.1508 F0.22
N246 G1 X14.277 Y6.3709 F0.22
N247 M246
N248 G4F.5
N249 M03
N250 G04 F0.5
N251 G40
N252 (SECONDS 7715)
N253 (USED TIME 02:08:35)
N254 (IGEMS:2020.4.2416 POST:BURNY Date:2012.08.06)
N255 M30
N256 %
